; HEADER_BLOCK_START
; generated by MomentSlicer 2.1.3 on 2025-07-19 at 02:02:17
; total layer number: 111
; filament_density: 1.26
; filament_diameter: 1.75
; max_z_height: 15.48
; HEADER_BLOCK_END

; THUMBNAIL_BLOCK_START

;
; THUMBNAIL_BLOCK_END

; external perimeters extrusion width = 0.42mm
; perimeters extrusion width = 0.44mm
; infill extrusion width = 0.44mm
; solid infill extrusion width = 0.42mm
; top infill extrusion width = 0.42mm
; support material extrusion width = 0.48mm
; first layer extrusion width = 0.48mm

; EXECUTABLE_BLOCK_START
EXCLUDE_OBJECT_DEFINE NAME=new_watch_cover_v2.step_id_0_copy_0 CENTER=201.84,201.84 POLYGON=[[161.84,181.84],[161.842,181.757],[161.846,181.691],[161.862,181.542],[161.883,181.43],[161.89,181.395],[161.924,181.269],[161.929,181.25],[161.978,181.109],[162.038,180.972],[162.108,180.84],[162.125,180.813],[162.188,180.713],[162.217,180.674],[162.276,180.593],[162.319,180.543],[162.374,180.48],[162.432,180.421],[162.48,180.374],[162.554,180.31],[162.593,180.276],[162.684,180.209],[162.713,180.188],[162.776,180.147],[162.84,180.108],[162.905,180.072],[162.962,180.043],[162.972,180.038],[163.04,180.007],[163.108,179.979],[163.109,179.978],[163.179,179.952],[163.25,179.929],[163.322,179.908],[163.395,179.89],[163.463,179.876],[163.468,179.875],[163.542,179.862],[163.616,179.853],[163.691,179.846],[163.765,179.841],[163.84,179.84],[239.84,179.84],[239.915,179.841],[239.989,179.846],[240.064,179.853],[240.138,179.862],[240.212,179.875],[240.217,179.876],[240.285,179.89],[240.358,179.908],[240.43,179.929],[240.501,179.952],[240.571,179.978],[240.572,179.979],[240.64,180.007],[240.708,180.038],[240.718,180.043],[240.775,180.072],[240.84,180.108],[240.904,180.147],[240.967,180.188],[240.996,180.209],[241.087,180.276],[241.126,180.31],[241.2,180.374],[241.248,180.421],[241.306,180.48],[241.361,180.543],[241.404,180.593],[241.463,180.674],[241.492,180.713],[241.555,180.813],[241.572,180.84],[241.642,180.972],[241.702,181.109],[241.751,181.25],[241.756,181.269],[241.79,181.395],[241.797,181.43],[241.818,181.542],[241.824,181.593],[241.834,181.691],[241.838,181.757],[241.84,181.84],[241.84,221.84],[241.834,221.989],[241.818,222.138],[241.79,222.285],[241.751,222.43],[241.702,222.571],[241.642,222.708],[241.572,222.84],[241.492,222.967],[241.404,223.087],[241.306,223.2],[241.2,223.306],[241.087,223.404],[240.967,223.492],[240.904,223.533],[240.84,223.572],[240.775,223.608],[240.708,223.642],[240.64,223.673],[240.571,223.702],[240.501,223.728],[240.43,223.751],[240.395,223.761],[240.358,223.772],[240.285,223.79],[240.212,223.805],[240.138,223.818],[240.064,223.827],[239.989,223.834],[239.915,223.839],[239.84,223.84],[163.84,223.84],[163.765,223.839],[163.691,223.834],[163.616,223.827],[163.542,223.818],[163.468,223.805],[163.395,223.79],[163.322,223.772],[163.285,223.761],[163.25,223.751],[163.179,223.728],[163.109,223.702],[163.04,223.673],[162.972,223.642],[162.905,223.608],[162.84,223.572],[162.776,223.533],[162.713,223.492],[162.593,223.404],[162.48,223.306],[162.374,223.2],[162.276,223.087],[162.188,222.967],[162.108,222.84],[162.038,222.708],[161.978,222.571],[161.929,222.43],[161.89,222.285],[161.862,222.138],[161.846,221.989],[161.84,221.84],[161.84,181.84]]
M73 P0 R46
;TYPE:Custom
STATUS_HEATING
INNER_LED_SEMI_HEATING
M117 Heating...
M140 S60
M104 S150
M190 S60
M109 S150
G28
PRINT_START
STATUS_HEATING
INNER_LED_HEATING
M117 Heating...
M104 S245
M109 S245
STATUS_PRINTING
PURGE
M106 P3 S191
G90
G21
M82 ; use absolute distances for extrusion
G92 E0
; filament start gcode
SET_PRESSURE_ADVANCE ADVANCE=0.03; Override pressure advance value
M106 S0
;LAYER_CHANGE
;Z:0.28
;HEIGHT:0.28
;BEFORE_LAYER_CHANGE
;0.28

G1 E-1 F3600
G92 E0
;AFTER_LAYER_CHANGE
;0.28
;_SET_FAN_SPEED_CHANGING_LAYER
SET_VELOCITY_LIMIT ACCEL=15000 ACCEL_TO_DECEL=7500
G1 Z.3 F36000
G1 X157.292 Y175.233
G1 Z.28
G1 E1 F3600
;TYPE:Skirt
;WIDTH:0.48
G1 F1800
G1 X158.742 Y174.525 E1.07197
G1 X244.938 Y174.525 E4.91459
G1 X246.069 Y174.914 E4.96793
G1 X246.777 Y176.365 E5.0399
G1 X246.777 Y227.315 E7.31128
G1 X246.388 Y228.447 E7.36463
G1 X244.938 Y229.155 E7.4366
G1 X158.742 Y229.155 E11.27922
G1 X157.611 Y228.766 E11.33256
G1 X156.903 Y227.315 E11.40453
G1 X156.903 Y176.365 E13.67591
G1 X157.279 Y175.271 E13.72747
G1 X157.691 Y175.435 F36000
G1 F1800
G1 X157.708 Y175.392 E13.72954
G1 X158.742 Y174.945 E13.77975
G1 X244.938 Y174.945 E17.62237
G1 X245.911 Y175.331 E17.66904
G1 X246.357 Y176.365 E17.71926
G1 X246.357 Y227.315 E19.99064
G1 X245.972 Y228.288 E20.03731
G1 X244.938 Y228.735 E20.08752
G1 X158.742 Y228.735 E23.93014
G1 X157.769 Y228.349 E23.97681
G1 X157.323 Y227.315 E24.02703
G1 X157.323 Y176.365 E26.29841
G1 X157.677 Y175.472 E26.34123
; printing object new_watch_cover_v2.step id:0 copy 0
G1 E25.64123 F3600
;WIPE_START
G1 F1800
G1 X157.708 Y175.392 E25.61534
G1 X158.547 Y175.029 E25.34123
;WIPE_END
G92 E0
EXCLUDE_OBJECT_START NAME=new_watch_cover_v2.step_id_0_copy_0
G1 Z.58 F36000
G1 X180.322 Y179.25 Z.58
G1 Z.28
G1 E1 F3600
;TYPE:Support
G1 X177.596 Y179.25 E1.12154
G1 X177.25 Y179.596 E1.14333
G1 X177.25 Y183.084 E1.29886
G1 X177.596 Y183.43 E1.32065
G1 X185.084 Y183.43 E1.6545
G1 X185.43 Y183.084 E1.67629
G1 X185.43 Y179.596 E1.83182
G1 X185.084 Y179.25 E1.85361
G1 X182.239 Y179.25 E1.98045
G1 X182.239 Y176.365 E2.10907
G1 X221.441 Y176.365 E3.85671
G1 X221.441 Y179.25 E3.98533
G1 X218.596 Y179.25 E4.11217
G1 X218.25 Y179.596 E4.13396
G1 X218.25 Y183.084 E4.28949
G1 X218.596 Y183.43 E4.31128
G1 X226.084 Y183.43 E4.64514
G1 X226.43 Y183.084 E4.66693
G1 X226.43 Y179.596 E4.82246
G1 X226.084 Y179.25 E4.84425
G1 X223.358 Y179.25 E4.96578
G1 X223.358 Y176.365 E5.0944
G1 X244.938 Y176.365 E6.05642
G1 X244.938 Y227.315 E8.3278
G1 X223.358 Y227.315 E9.28982
G1 X223.358 Y224.43 E9.41844
G1 X226.084 Y224.43 E9.53997
G1 X226.43 Y224.084 E9.56176
G1 X226.43 Y220.596 E9.71729
G1 X226.084 Y220.25 E9.73908
G1 X218.596 Y220.25 E10.07293
G1 X218.25 Y220.596 E10.09472
G1 X218.25 Y224.084 E10.25025
G1 X218.596 Y224.43 E10.27204
G1 X221.441 Y224.43 E10.39889
G1 X221.441 Y227.315 E10.52751
G1 X158.742 Y227.315 E13.32264
G1 X158.742 Y176.365 E15.59402
G1 X180.322 Y176.365 E16.55604
G1 X180.322 Y179.187 E16.68185
G1 E15.98185
;WIPE_START
G1 X180.322 Y178.187 E15.68185
;WIPE_END
G92 E0
G1 Z.58 F36000
G1 X192.07 Y215.567 Z.58
G1 Z.28
G1 E1 F3600
G1 X192.07 Y217.484 E1.08547
G1 X226.295 Y217.484 E2.61125
G1 X226.295 Y215.567 E2.69672
G1 X192.133 Y215.567 E4.21968
G1 X221.441 Y189.133 F36000
G1 F3600
G1 X221.441 Y199.862 E4.69797
G1 X235.107 Y199.862 E5.30718
G1 X235.107 Y189.133 E5.78547
G1 X221.504 Y189.133 E6.39188
G1 E5.69188
;WIPE_START
M73 P1 R46
G1 X222.504 Y189.133 E5.39188
;WIPE_END
G92 E0
G1 Z.58 F36000
G1 X218.439 Y219.872 Z.58
G1 Z.28
G1 E1 F3600
G1 X217.872 Y220.439 E1.03575
G1 X217.872 Y224.241 E1.20524
G1 X218.439 Y224.808 E1.24098
G1 X221.063 Y224.808 E1.35796
G1 X221.063 Y226.937 E1.45288
G1 X159.12 Y226.937 E4.21431
G1 X159.12 Y176.743 E6.452
G1 X179.944 Y176.743 E7.38032
G1 X179.944 Y178.872 E7.47524
G1 X177.439 Y178.872 E7.58691
G1 X176.872 Y179.439 E7.62266
G1 X176.872 Y183.241 E7.79215
G1 X177.439 Y183.808 E7.82789
G1 X185.241 Y183.808 E8.1757
G1 X185.808 Y183.241 E8.21145
G1 X185.808 Y179.439 E8.38094
G1 X185.241 Y178.872 E8.41669
G1 X182.617 Y178.872 E8.53366
G1 X182.617 Y176.743 E8.62858
G1 X221.063 Y176.743 E10.34252
G1 X221.063 Y178.872 E10.43745
G1 X218.439 Y178.872 E10.55442
G1 X217.872 Y179.439 E10.59017
G1 X217.872 Y183.241 E10.75966
G1 X218.439 Y183.808 E10.7954
G1 X226.241 Y183.808 E11.14321
G1 X226.808 Y183.241 E11.17896
G1 X226.808 Y179.439 E11.34845
G1 X226.241 Y178.872 E11.3842
G1 X223.736 Y178.872 E11.49586
G1 X223.736 Y176.743 E11.59078
G1 X244.56 Y176.743 E12.51911
G1 X244.56 Y226.937 E14.75679
G1 X223.736 Y226.937 E15.68512
G1 X223.736 Y224.808 E15.78004
G1 X226.241 Y224.808 E15.8917
G1 X226.808 Y224.241 E15.92745
G1 X226.808 Y220.439 E16.09694
G1 X226.241 Y219.872 E16.13269
G1 X218.439 Y219.872 E16.4805
G1 X218.246 Y219.406 F36000
G1 F3600
G1 X217.406 Y220.246 E16.53347
G1 X217.406 Y224.434 E16.72019
G1 X218.246 Y225.274 E16.77317
G1 X220.596 Y225.274 E16.87796
G1 X220.596 Y226.471 E16.93129
G1 X159.587 Y226.471 E19.65112
G1 X159.587 Y177.209 E21.84721
G1 X179.477 Y177.209 E22.73393
G1 X179.477 Y178.406 E22.78725
G1 X177.246 Y178.406 E22.88673
G1 X176.406 Y179.246 E22.93971
G1 X176.406 Y183.434 E23.12643
G1 X177.246 Y184.274 E23.17941
G1 X185.434 Y184.274 E23.54445
G1 X186.274 Y183.434 E23.59743
G1 X186.274 Y179.246 E23.78415
G1 X185.434 Y178.406 E23.83713
G1 X183.084 Y178.406 E23.94192
G1 X183.084 Y177.209 E23.99524
G1 X220.596 Y177.209 E25.66758
G1 X220.596 Y178.406 E25.72091
G1 X218.246 Y178.406 E25.8257
G1 X217.406 Y179.246 E25.87868
G1 X217.406 Y183.434 E26.06539
G1 X218.246 Y184.274 E26.11837
G1 X226.434 Y184.274 E26.48341
G1 X227.274 Y183.434 E26.53639
G1 X227.274 Y179.246 E26.72311
G1 X226.434 Y178.406 E26.77609
G1 X224.203 Y178.406 E26.87557
G1 X224.203 Y177.209 E26.92889
G1 X244.093 Y177.209 E27.81562
G1 X244.093 Y226.471 E30.0117
G1 X224.203 Y226.471 E30.89843
G1 X224.203 Y225.274 E30.95175
G1 X226.434 Y225.274 E31.05123
G1 X227.274 Y224.434 E31.10421
G1 X227.274 Y220.246 E31.29093
G1 X226.434 Y219.406 E31.34391
G1 X218.246 Y219.406 E31.70895
G1 X218.196 Y218.795 F36000
G1 F3600
G1 X216.939 Y220.053 E31.78823
G1 X216.939 Y224.627 E31.99218
G1 X218.316 Y226.004 E32.07896
G1 X160.054 Y226.004 E34.67631
G1 X160.054 Y177.676 E36.8308
G1 X177.316 Y177.676 E37.60035
G1 X175.939 Y179.053 E37.68714
G1 X175.939 Y183.627 E37.89109
G1 X177.053 Y184.741 E37.9613
G1 X185.627 Y184.741 E38.34357
G1 X186.741 Y183.627 E38.41378
G1 X186.741 Y179.053 E38.61773
G1 X185.364 Y177.676 E38.70452
G1 X218.316 Y177.676 E40.17349
G1 X216.939 Y179.053 E40.26028
G1 X216.939 Y183.627 E40.46423
G1 X218.053 Y184.741 E40.53444
G1 X226.627 Y184.741 E40.91671
G1 X227.741 Y183.627 E40.98692
G1 X227.741 Y179.053 E41.19087
G1 X226.364 Y177.676 E41.27766
G1 X243.627 Y177.676 E42.04721
G1 X243.627 Y226.004 E44.2017
G1 X226.364 Y226.004 E44.97125
G1 X227.741 Y224.627 E45.05804
G1 X227.741 Y220.053 E45.26199
G1 X226.484 Y218.795 E45.34127
G1 X227.606 Y218.795 E45.39132
G1 X227.606 Y214.256 E45.59369
G1 X190.759 Y214.256 E47.23635
G1 X190.759 Y218.795 E47.43872
G1 X218.196 Y218.795 E48.66189
G1 X217.07 Y219.262 F36000
G1 F3600
G1 X216.472 Y219.859 E48.69957
G1 X216.472 Y224.821 E48.92075
G1 X217.189 Y225.537 E48.96594
G1 X160.52 Y225.537 E51.49227
G1 X160.52 Y178.143 E53.60516
G1 X176.189 Y178.143 E54.3037
G1 X175.472 Y178.859 E54.34889
G1 X175.472 Y183.821 E54.57007
G1 X176.859 Y185.208 E54.65751
G1 X185.821 Y185.208 E55.05701
G1 X187.208 Y183.821 E55.14445
G1 X187.208 Y178.859 E55.36563
G1 X186.491 Y178.143 E55.41082
G1 X217.189 Y178.143 E56.77936
G1 X216.472 Y178.859 E56.82455
G1 X216.472 Y183.821 E57.04573
G1 X217.859 Y185.208 E57.13317
G1 X226.821 Y185.208 E57.53268
G1 X228.208 Y183.821 E57.62012
G1 X228.208 Y178.859 E57.8413
G1 X227.491 Y178.143 E57.88649
G1 X243.16 Y178.143 E58.58502
G1 X243.16 Y225.537 E60.69791
G1 X227.491 Y225.537 E61.39645
G1 X228.208 Y224.821 E61.44164
G1 X228.208 Y219.859 E61.66282
G1 X227.61 Y219.262 E61.7005
G1 X228.073 Y219.262 E61.72113
G1 X228.073 Y213.789 E61.9651
G1 X190.293 Y213.789 E63.64937
G1 X190.293 Y219.262 E63.89334
G1 X217.07 Y219.262 E65.08709
G1 X216.006 Y219.728 F36000
G1 F3600
G1 X216.006 Y225.071 E65.32527
G1 X160.987 Y225.071 E67.77805
G1 X160.987 Y178.609 E69.84934
G1 X175.006 Y178.609 E70.47432
G1 X175.006 Y184.014 E70.71527
G1 X176.666 Y185.674 E70.81994
G1 X186.014 Y185.674 E71.23668
G1 X187.674 Y184.014 E71.34135
G1 X187.674 Y178.609 E71.5823
M73 P1 R45
G1 X216.006 Y178.609 E72.84533
G1 X216.006 Y184.014 E73.08629
G1 X217.666 Y185.674 E73.19096
G1 X227.014 Y185.674 E73.60769
G1 X228.674 Y184.014 E73.71236
G1 X228.674 Y178.609 E73.95331
G1 X242.693 Y178.609 E74.5783
M73 P2 R45
G1 X242.693 Y225.071 E76.64958
G1 X228.674 Y225.071 E77.27457
G1 X228.539 Y213.323 E77.79835
G1 X189.826 Y213.323 E79.52421
G1 X189.826 Y219.728 E79.80978
G1 X216.006 Y219.728 E80.97689
G1 X215.539 Y220.195 F36000
G1 F3600
G1 X215.539 Y224.604 E81.17347
G1 X161.453 Y224.604 E83.58465
G1 X161.453 Y179.076 E85.61434
G1 X174.539 Y179.076 E86.19772
G1 X174.539 Y184.207 E86.42649
G1 X176.473 Y186.141 E86.54839
G1 X186.207 Y186.141 E86.98236
G1 X188.141 Y184.207 E87.10426
G1 X188.141 Y179.076 E87.33302
G1 X215.539 Y179.076 E88.55446
G1 X215.539 Y184.207 E88.78323
G1 X217.473 Y186.141 E88.90513
G1 X218.73 Y186.141 E88.96119
G1 X218.73 Y202.572 E89.69371
G1 X237.817 Y202.572 E90.54462
G1 X237.817 Y186.422 E91.2646
G1 X226.926 Y186.422 E91.75015
G1 X229.141 Y184.207 E91.88981
G1 X229.141 Y179.076 E92.11857
G1 X242.227 Y179.076 E92.70195
G1 X242.227 Y224.604 E94.73164
G1 X229.141 Y224.604 E95.31503
G1 X229.006 Y212.856 E95.83881
G1 X189.359 Y212.856 E97.60627
G1 X189.359 Y220.195 E97.93344
G1 X215.539 Y220.195 E99.10055
G1 X215.073 Y220.661 F36000
G1 F3600
G1 X215.073 Y224.138 E99.25553
G1 X161.92 Y224.138 E101.62511
G1 X161.92 Y179.542 E103.6132
G1 X174.073 Y179.542 E104.15498
G1 X174.073 Y184.4 E104.37156
G1 X176.28 Y186.607 E104.5107
G1 X186.4 Y186.607 E104.96189
G1 X188.607 Y184.4 E105.10103
G1 X188.607 Y179.542 E105.31761
G1 X215.073 Y179.542 E106.49745
G1 X215.073 Y184.4 E106.71403
G1 X217.28 Y186.607 E106.85316
G1 X218.264 Y186.607 E106.89703
G1 X218.264 Y203.039 E107.62956
G1 X238.284 Y203.039 E108.52207
G1 X238.284 Y185.956 E109.28365
G1 X228.052 Y185.956 E109.73979
G1 X229.607 Y184.4 E109.83784
G1 X229.607 Y179.542 E110.05442
G1 X241.76 Y179.542 E110.5962
G1 X241.76 Y224.138 E112.58429
G1 X229.607 Y224.138 E113.12608
G1 X229.473 Y212.389 E113.64986
G1 X188.893 Y212.389 E115.45892
G1 X188.893 Y220.661 E115.82769
G1 X215.073 Y220.661 E116.9948
G1 X214.606 Y221.128 F36000
G1 F3600
G1 X214.606 Y223.671 E117.10818
G1 X162.386 Y223.671 E119.43616
G1 X162.386 Y180.009 E121.38265
G1 X173.606 Y180.009 E121.88283
G1 X173.606 Y184.594 E122.08723
G1 X176.086 Y187.074 E122.2436
G1 X186.594 Y187.074 E122.71202
G1 X189.074 Y184.594 E122.86839
G1 X189.074 Y180.009 E123.07279
G1 X214.606 Y180.009 E124.21102
G1 X214.606 Y184.594 E124.41542
G1 X217.086 Y187.074 E124.57179
G1 X217.797 Y187.074 E124.60347
G1 X217.797 Y203.505 E125.336
G1 X238.75 Y203.505 E126.27011
G1 X238.75 Y185.489 E127.07329
G1 X229.178 Y185.489 E127.50001
G1 X230.074 Y184.594 E127.55646
G1 X230.074 Y180.009 E127.76086
G1 X241.294 Y180.009 E128.26104
G1 X241.294 Y223.671 E130.20753
G1 X230.074 Y223.671 E130.70772
G1 X229.939 Y211.923 E131.2315
G1 X188.426 Y211.923 E133.08216
G1 X188.426 Y221.128 E133.49253
G1 X214.606 Y221.128 E134.65964
G1 X214.14 Y221.594 F36000
G1 F3600
G1 X214.14 Y223.205 E134.73142
G1 X162.853 Y223.205 E137.0178
G1 X162.853 Y180.475 E138.92269
G1 X173.14 Y180.475 E139.38127
G1 X173.14 Y184.787 E139.57349
G1 X175.893 Y187.54 E139.74708
G1 X186.787 Y187.54 E140.23274
G1 X189.54 Y184.787 E140.40634
G1 X189.54 Y180.475 E140.59855
G1 X214.14 Y180.475 E141.69519
G1 X214.14 Y184.787 E141.8874
G1 X216.893 Y187.54 E142.061
G1 X217.33 Y187.54 E142.0805
G1 X217.33 Y203.972 E142.81303
G1 X239.217 Y203.972 E143.78874
G1 X239.217 Y185.023 E144.63351
G1 X230.54 Y185.023 E145.02032
G1 X230.54 Y180.475 E145.22303
G1 X240.827 Y180.475 E145.68162
G1 X240.827 Y223.205 E147.58651
G1 X230.54 Y223.205 E148.04509
G1 X230.406 Y211.456 E148.56887
M73 P3 R45
G1 X187.96 Y211.456 E150.46114
G1 X187.96 Y221.594 E150.9131
G1 X214.14 Y221.594 E152.08021
G1 X213.673 Y222.061 F36000
G1 F3600
G1 X213.673 Y222.738 E152.11039
G1 X163.319 Y222.738 E154.35518
G1 X163.319 Y180.942 E156.21847
G1 X172.673 Y180.942 E156.63545
G1 X172.673 Y184.98 E156.81548
G1 X175.7 Y188.007 E157.00631
G1 X186.98 Y188.007 E157.5092
G1 X190.007 Y184.98 E157.70002
G1 X190.007 Y180.942 E157.88005
G1 X213.673 Y180.942 E158.93509
G1 X213.673 Y184.98 E159.11512
G1 X216.7 Y188.007 E159.30595
G1 X216.864 Y188.007 E159.31327
G1 X216.864 Y204.439 E160.04579
G1 X239.684 Y204.439 E161.0631
G1 X239.684 Y184.556 E161.94948
G1 X231.007 Y184.556 E162.33628
