; HEADER_BLOCK_START
; generated by MomentSlicer 2.1.3 on 2025-07-19 at 02:01:23
; total layer number: 266
; filament_density: 1.26
; filament_diameter: 1.75
; max_z_height: 34.08
; HEADER_BLOCK_END

; THUMBNAIL_BLOCK_START

;
; THUMBNAIL_BLOCK_END

; external perimeters extrusion width = 0.42mm
; perimeters extrusion width = 0.44mm
; infill extrusion width = 0.44mm
; solid infill extrusion width = 0.42mm
; top infill extrusion width = 0.42mm
; support material extrusion width = 0.48mm
; first layer extrusion width = 0.48mm

; EXECUTABLE_BLOCK_START
EXCLUDE_OBJECT_DEFINE NAME=new_watch_body_v2.step_id_0_copy_0 CENTER=201.84,201.84 POLYGON=[[161.84,182.34],[161.841,182.258],[161.845,182.176],[161.846,182.169],[161.852,182.092],[161.861,182.014],[161.863,182],[161.874,181.928],[161.888,181.852],[161.892,181.831],[161.907,181.766],[161.925,181.693],[161.933,181.666],[161.95,181.607],[161.973,181.536],[161.984,181.503],[162.004,181.452],[162.03,181.383],[162.047,181.344],[162.098,181.234],[162.12,181.19],[162.175,181.09],[162.204,181.041],[162.261,180.951],[162.298,180.898],[162.357,180.818],[162.401,180.762],[162.46,180.692],[162.513,180.634],[162.572,180.572],[162.634,180.513],[162.692,180.46],[162.762,180.401],[162.818,180.357],[162.898,180.298],[162.951,180.261],[163.041,180.204],[163.09,180.175],[163.19,180.12],[163.234,180.098],[163.344,180.047],[163.383,180.03],[163.452,180.004],[163.503,179.984],[163.536,179.973],[163.607,179.95],[163.666,179.933],[189.34,172.34],[214.34,172.34],[240.014,179.933],[240.073,179.95],[240.144,179.973],[240.177,179.984],[240.228,180.004],[240.297,180.03],[240.336,180.047],[240.446,180.098],[240.49,180.12],[240.59,180.175],[240.639,180.204],[240.729,180.261],[240.782,180.298],[240.862,180.357],[240.918,180.401],[240.988,180.46],[241.046,180.513],[241.108,180.572],[241.167,180.634],[241.22,180.692],[241.279,180.762],[241.323,180.818],[241.382,180.898],[241.419,180.951],[241.476,181.041],[241.505,181.09],[241.56,181.19],[241.582,181.234],[241.633,181.344],[241.65,181.383],[241.676,181.452],[241.696,181.503],[241.707,181.536],[241.73,181.607],[241.747,181.666],[241.755,181.693],[241.773,181.766],[241.788,181.831],[241.792,181.852],[241.806,181.928],[241.817,182],[241.819,182.014],[241.828,182.092],[241.834,182.169],[241.835,182.176],[241.839,182.258],[241.84,182.34],[241.84,221.34],[241.839,221.385],[241.839,221.422],[241.837,221.448],[241.835,221.504],[241.834,221.511],[241.827,221.588],[241.825,221.616],[241.819,221.666],[241.817,221.68],[241.81,221.724],[241.797,221.798],[241.792,221.828],[241.788,221.849],[241.779,221.888],[241.755,221.987],[241.747,222.014],[241.721,222.101],[241.707,222.144],[241.696,222.177],[241.65,222.297],[241.633,222.336],[241.582,222.446],[241.56,222.49],[241.505,222.59],[241.476,222.639],[241.419,222.729],[241.382,222.782],[241.323,222.862],[241.279,222.918],[241.22,222.988],[241.167,223.046],[241.108,223.108],[241.046,223.167],[240.988,223.22],[240.918,223.279],[240.862,223.323],[240.782,223.382],[240.729,223.419],[240.639,223.476],[240.59,223.505],[240.49,223.56],[240.446,223.582],[240.336,223.633],[240.297,223.65],[240.228,223.676],[240.177,223.696],[240.144,223.707],[240.073,223.73],[240.014,223.747],[214.34,231.34],[189.34,231.34],[163.666,223.747],[163.607,223.73],[163.536,223.707],[163.503,223.696],[163.452,223.676],[163.383,223.65],[163.344,223.633],[163.234,223.582],[163.19,223.56],[163.09,223.505],[163.041,223.476],[162.951,223.419],[162.898,223.382],[162.818,223.323],[162.762,223.279],[162.692,223.22],[162.634,223.167],[162.572,223.108],[162.513,223.046],[162.46,222.988],[162.401,222.918],[162.357,222.862],[162.298,222.782],[162.261,222.729],[162.204,222.639],[162.175,222.59],[162.12,222.49],[162.098,222.446],[162.047,222.336],[162.03,222.297],[162.004,222.228],[161.984,222.177],[161.973,222.144],[161.95,222.073],[161.933,222.014],[161.925,221.987],[161.907,221.914],[161.892,221.849],[161.888,221.828],[161.874,221.752],[161.863,221.68],[161.861,221.666],[161.852,221.588],[161.846,221.511],[161.845,221.504],[161.841,221.422],[161.84,221.34],[161.84,182.34]]
M73 P0 R63
;TYPE:Custom
STATUS_HEATING
INNER_LED_SEMI_HEATING
M117 Heating...
M140 S60
M104 S150
M190 S60
M109 S150
G28
PRINT_START
STATUS_HEATING
INNER_LED_HEATING
M117 Heating...
M104 S245
M109 S245
STATUS_PRINTING
PURGE
M106 P3 S191
G90
G21
M82 ; use absolute distances for extrusion
G92 E0
; filament start gcode
SET_PRESSURE_ADVANCE ADVANCE=0.03; Override pressure advance value
M106 S0
;LAYER_CHANGE
;Z:0.28
;HEIGHT:0.28
;BEFORE_LAYER_CHANGE
;0.28

G1 E-1 F3600
G92 E0
;AFTER_LAYER_CHANGE
;0.28
;_SET_FAN_SPEED_CHANGING_LAYER
SET_VELOCITY_LIMIT ACCEL=15000 ACCEL_TO_DECEL=7500
G1 Z.3 F36000
G1 X162.951 Y177.04
G1 Z.28
G1 E1 F3600
;TYPE:Skirt
;WIDTH:0.48
G1 F1800
G1 X163.406 Y176.708 E1.02512
G1 X184.333 Y165.918 E2.07476
G1 X185.176 Y165.714 E2.11344
G1 X218.504 Y165.714 E3.5992
G1 X219.347 Y165.918 E3.63788
G1 X240.274 Y176.708 E4.68752
G1 X240.729 Y177.04 E4.71264
G1 X243.678 Y179.977 E4.89817
G1 X244.219 Y181.28 E4.96109
G1 X244.219 Y222.596 E6.80297
G1 X243.774 Y223.796 E6.86002
G1 X241.417 Y226.536 E7.02117
G1 X240.847 Y226.981 E7.0534
G1 X219.329 Y237.771 E8.12653
G1 X218.504 Y237.966 E8.16431
G1 X185.176 Y237.966 E9.65008
G1 X184.438 Y237.812 E9.68369
G1 X164.316 Y229 E10.66299
G1 X163.614 Y228.46 E10.70248
G1 X159.861 Y223.741 E10.97127
G1 X159.572 Y223.225 E10.99763
G1 X157.014 Y216.196 E11.33112
G1 X156.903 Y215.567 E11.3596
G1 X156.903 Y188.113 E12.58349
G1 X157.019 Y187.468 E12.61272
G1 X159.578 Y180.635 E12.93798
G1 X160.002 Y179.977 E12.9729
G1 X162.922 Y177.068 E13.15664
G1 X163.219 Y177.366 F36000
G1 F1800
G1 X163.247 Y177.337 E13.15843
G1 X163.598 Y177.081 E13.17781
G1 X184.525 Y166.292 E14.22746
G1 X185.176 Y166.134 E14.25731
G1 X218.504 Y166.134 E15.74307
G1 X219.155 Y166.292 E15.77292
G1 X240.082 Y177.081 E16.82256
G1 X240.433 Y177.337 E16.84195
G1 X243.381 Y180.274 E17.02747
G1 X243.799 Y181.28 E17.07603
G1 X243.799 Y222.596 E18.91791
G1 X243.456 Y223.522 E18.96194
G1 X241.099 Y226.263 E19.12309
G1 X240.659 Y226.606 E19.14797
G1 X219.14 Y237.396 E20.2211
G1 X218.504 Y237.546 E20.25026
G1 X185.176 Y237.546 E21.73602
G1 X184.607 Y237.427 E21.76196
G1 X164.484 Y228.616 E22.74126
G1 X163.942 Y228.199 E22.77174
G1 X160.189 Y223.48 E23.04053
G1 X159.966 Y223.082 E23.06088
G1 X157.408 Y216.052 E23.39436
G1 X157.323 Y215.567 E23.41634
G1 X157.323 Y188.113 E24.64023
G1 X157.413 Y187.615 E24.66279
G1 X159.971 Y180.783 E24.98805
G1 X160.299 Y180.274 E25.015
G1 X163.19 Y177.394 E25.19696
; printing object new_watch_body_v2.step id:0 copy 0
G1 E24.49696 F3600
;WIPE_START
G1 F1800
G1 X163.247 Y177.337 E24.47296
G1 X163.598 Y177.081 E24.34251
G1 X164.03 Y176.859 E24.19696
;WIPE_END
G92 E0
EXCLUDE_OBJECT_START NAME=new_watch_body_v2.step_id_0_copy_0
G1 Z.58 F36000
G1 X166.46 Y180.806 Z.58
G1 Z.28
G1 E1 F3600
;TYPE:Support interface
G1 X166.46 Y178.343 E1.1098
G1 X165.723 Y178.343 E1.14266
G1 X165.659 Y180.727 E1.24896
G2 X164.986 Y180.949 I1.158 J4.65 E1.28059
G1 X164.986 Y178.343 E1.39673
G1 X164.249 Y178.343 E1.42959
G1 X164.23 Y181.358 E1.56398
G2 X163.512 Y182.024 I1.916 J2.785 E1.60779
G1 X163.512 Y181.28 E1.64094
G1 X162.775 Y181.28 E1.6738
G1 X162.741 Y183.6 E1.77722
G3 X162.038 Y184.218 I-.473 J.171 E1.83089
G1 X162.038 Y181.28 E1.96183
G1 X161.301 Y181.28 E1.99469
G1 X161.301 Y184.414 E2.13439
G1 E1.43439
;WIPE_START
G1 X161.301 Y183.414 E1.13439
;WIPE_END
G92 E0
G1 Z.58 F36000
G1 X162.926 Y215.567 Z.58
G1 Z.28
G1 E1 F3600
;TYPE:Support
G1 X158.742 Y215.567 E1.18652
G1 X158.742 Y188.113 E2.41041
G1 X162.926 Y188.113 E2.59694
G1 X162.926 Y215.504 E3.81802
G1 X162.549 Y188.491 F36000
G1 F3600
G1 X162.549 Y215.189 E5.00822
G1 X159.12 Y215.189 E5.16104
G1 X159.12 Y188.491 E6.35124
G1 X162.549 Y188.491 E6.50407
G1 X162.082 Y188.958 F36000
G1 F3600
G1 X162.082 Y214.722 E7.65266
G1 X159.587 Y214.722 E7.76389
G1 X159.587 Y188.958 E8.91249
G1 X162.082 Y188.958 E9.02372
G1 X161.615 Y189.424 F36000
G1 F3600
G1 X161.615 Y214.256 E10.13071
G1 X160.054 Y214.256 E10.20034
G1 X160.054 Y189.424 E11.30734
G1 X161.615 Y189.424 E11.37697
G1 X161.149 Y189.891 F36000
G1 F3600
G1 X161.149 Y213.789 E12.44236
G1 X160.52 Y213.789 E12.47039
G1 X160.52 Y189.891 E13.53579
G1 X161.149 Y189.891 E13.56382
G1 E12.86382
;WIPE_START
G1 X160.52 Y189.891 E12.6752
G1 X160.52 Y190.262 E12.56382
;WIPE_END
G92 E0
G1 Z.58 F36000
G1 X161.301 Y222.596 Z.58
G1 Z.28
G1 E1 F3600
;TYPE:Support interface
G1 X161.301 Y219.462 E1.13971
G1 X162.038 Y219.462 E1.17257
G1 X162.038 Y222.4 E1.3035
G1 X162.775 Y222.4 E1.33636
G1 X162.775 Y220.198 E1.43449
G2 X163.493 Y221.634 I4.214 J-1.211 E1.50644
G1 X163.512 Y222.4 E1.54059
G1 X163.658 Y222.4 E1.5471
G1 X163.658 Y225.337 E1.67804
G1 X164.249 Y225.337 E1.70439
G1 X164.249 Y222.335 E1.8382
G1 X164.986 Y222.732 E1.87552
G1 X164.986 Y225.337 E1.99165
G1 X165.723 Y225.337 E2.02451
G1 X165.723 Y222.967 E2.13017
G2 X166.105 Y223.035 I.723 J-2.929 E2.14749
G1 X166.46 Y223.069 E2.16339
G1 X166.46 Y225.533 E2.27323
G1 E1.57323
;WIPE_START
G1 X166.46 Y224.533 E1.27323
;WIPE_END
G92 E0
G1 Z.58 F36000
G1 X197.944 Y226.295 Z.58
G1 Z.28
G1 E1 F3600
;TYPE:Support
G1 X208.673 Y226.295 E1.47828
G1 X208.673 Y222.754 E1.63617
G1 X218.504 Y222.754 E2.07445
G1 X218.504 Y236.126 E2.67061
G1 X185.176 Y236.126 E4.15637
G1 X185.176 Y227.315 E4.54918
G1 X165.054 Y227.315 E5.44625
G1 X165.054 Y225.795 E5.514
G1 X167.054 Y225.795 E5.60316
G1 X167.054 Y222.754 E5.73877
G1 X197.944 Y222.754 E7.11588
G1 X197.944 Y226.232 E7.27097
G1 X197.566 Y223.131 F36000
G1 F3600
G1 X197.566 Y226.673 E7.42886
G1 X209.051 Y226.673 E7.94083
G1 X209.051 Y223.131 E8.09872
G1 X218.126 Y223.131 E8.5033
G1 X218.126 Y235.748 E9.06577
G1 X185.554 Y235.748 E10.51784
G1 X185.554 Y226.937 E10.91065
G1 X165.432 Y226.937 E11.80772
G1 X165.432 Y226.173 E11.84177
G1 X167.432 Y226.173 E11.93093
G1 X167.432 Y223.131 E12.06653
G1 X197.566 Y223.131 E13.40996
G1 X197.1 Y223.598 F36000
G1 F3600
G1 X197.1 Y227.14 E13.56785
G1 X209.517 Y227.14 E14.12142
G1 X209.517 Y223.598 E14.27931
G1 X217.659 Y223.598 E14.64229
G1 X217.659 Y235.282 E15.16316
G1 X186.021 Y235.282 E16.57363
G1 X186.021 Y226.471 E16.96644
G1 X167.898 Y226.471 E17.77435
G1 X167.898 Y223.598 E17.90241
G1 X197.1 Y223.598 E19.20423
G1 X196.633 Y224.065 F36000
M73 P0 R62
G1 F3600
G1 X196.633 Y227.606 E19.36212
G1 X209.984 Y227.606 E19.95729
G1 X209.984 Y224.065 E20.11519
G1 X217.193 Y224.065 E20.43656
G1 X217.193 Y234.815 E20.91583
G1 X186.487 Y234.815 E22.2847
G1 X186.487 Y226.004 E22.67751
G1 X168.365 Y226.004 E23.48542
G1 X168.365 Y224.065 E23.57188
G1 X196.633 Y224.065 E24.8321
G1 X196.167 Y224.531 F36000
G1 F3600
G1 X196.167 Y228.073 E24.98999
G1 X210.45 Y228.073 E25.62677
G1 X210.45 Y224.531 E25.78466
G1 X216.726 Y224.531 E26.06444
G1 X216.726 Y234.349 E26.50211
G1 X186.954 Y234.349 E27.82938
G1 X186.954 Y225.537 E28.22218
G1 X168.831 Y225.537 E29.03009
G1 X168.831 Y224.531 E29.07495
G1 X196.167 Y224.531 E30.29358
G1 X195.7 Y224.998 F36000
G1 F3600
G1 X195.7 Y228.539 E30.45147
G1 X210.917 Y228.539 E31.12984
G1 X210.917 Y224.998 E31.28773
G1 X216.26 Y224.998 E31.52591
G1 X216.26 Y233.882 E31.92198
G1 X187.42 Y233.882 E33.20765
G1 X187.42 Y224.998 E33.60372
G1 X195.7 Y224.998 E33.97284
G1 X195.234 Y225.464 F36000
M73 P1 R62
G1 F3600
G1 X195.234 Y229.006 E34.13073
G1 X211.384 Y229.006 E34.8507
G1 X211.384 Y225.464 E35.00859
G1 X215.793 Y225.464 E35.20517
G1 X215.793 Y233.416 E35.55964
G1 X187.887 Y233.416 E36.80371
G1 X187.887 Y225.464 E37.15818
G1 X195.234 Y225.464 E37.4857
G1 X194.767 Y225.931 F36000
G1 F3600
G1 X194.767 Y229.473 E37.64359
G1 X211.85 Y229.473 E38.40516
G1 X211.85 Y225.931 E38.56305
G1 X215.327 Y225.931 E38.71803
G1 X215.327 Y232.949 E39.0309
G1 X188.353 Y232.949 E40.23338
G1 X188.353 Y225.931 E40.54625
G1 X194.767 Y225.931 E40.83216
G1 X194.3 Y226.397 F36000
G1 F3600
G1 X194.3 Y229.939 E40.99005
G1 X212.317 Y229.939 E41.79323
G1 X212.317 Y226.397 E41.95112
G1 X214.86 Y226.397 E42.0645
G1 X214.86 Y232.482 E42.33577
G1 X188.82 Y232.482 E43.49664
G1 X188.82 Y226.397 E43.76791
G1 X194.3 Y226.397 E44.01223
G1 X193.834 Y226.864 F36000
G1 F3600
G1 X193.834 Y230.406 E44.17012
G1 X212.783 Y230.406 E45.01489
G1 X212.783 Y226.864 E45.17278
G1 X214.393 Y226.864 E45.24456
G1 X214.393 Y232.016 E45.47424
G1 X189.287 Y232.016 E46.59351
G1 X189.287 Y226.864 E46.82318
G1 X193.834 Y226.864 E47.0259
G1 X193.367 Y227.331 F36000
G1 F3600
G1 X193.367 Y230.872 E47.18379
G1 X213.25 Y230.872 E48.07016
G1 X213.25 Y227.331 E48.22805
G1 X213.927 Y227.331 E48.25823
G1 X213.927 Y231.549 E48.4463
G1 X189.753 Y231.549 E49.52398
G1 X189.753 Y227.331 E49.71205
G1 X193.367 Y227.331 E49.87316
G1 X192.901 Y227.797 F36000
G1 F3600
G1 X192.901 Y231.083 E50.01964
G1 X190.22 Y231.083 E50.13915
G1 X190.22 Y227.797 E50.28563
G1 X192.901 Y227.797 E50.40514
G1 X192.434 Y228.264 F36000
G1 F3600
G1 X192.434 Y230.616 E50.51002
G1 X190.686 Y230.616 E50.58794
G1 X190.686 Y228.264 E50.69281
G1 X192.434 Y228.264 E50.77073
G1 X191.968 Y228.73 F36000
G1 F3600
G1 X191.968 Y230.15 E50.834
G1 X191.153 Y230.15 E50.87032
G1 X191.153 Y228.73 E50.93359
G1 X191.968 Y228.73 E50.96991
G1 E50.26991
;WIPE_START
G1 X191.153 Y228.73 E50.02551
G1 X191.153 Y228.916 E49.96991
;WIPE_END
G92 E0
G1 Z.58 F36000
G1 X237.22 Y225.533 Z.58
G1 Z.28
G1 E1 F3600
;TYPE:Support interface
G1 X237.22 Y223.069 E1.10985
G2 X237.843 Y222.992 I-.44 J-6.126 E1.13786
G1 X237.957 Y222.967 E1.14306
G1 X237.957 Y225.337 E1.24872
G1 X238.694 Y225.337 E1.28158
G1 X238.694 Y222.732 E1.39771
G2 X239.375 Y222.374 I-1.807 J-4.26 E1.43204
G1 X239.431 Y225.337 E1.56415
G1 X240.022 Y225.337 E1.5905
G1 X240.022 Y222.4 E1.72144
G1 X240.168 Y222.4 E1.72795
G3 X240.323 Y221.45 I.744 J-.367 E1.77372
G1 X240.905 Y220.198 E1.83525
G1 X240.905 Y222.4 E1.93338
G1 X241.642 Y222.4 E1.96624
G1 X241.642 Y219.462 E2.09717
G1 X242.379 Y219.462 E2.13003
G1 X242.379 Y222.596 E2.26974
G1 E1.56974
;WIPE_START
G1 X242.379 Y221.596 E1.26974
;WIPE_END
G92 E0
G1 Z.58 F36000
G1 X242.379 Y184.414 Z.58
G1 Z.28
G1 E1 F3600
G1 X242.379 Y181.28 E1.13971
G1 X241.642 Y181.28 E1.17257
G1 X241.642 Y184.218 E1.3035
G1 X241.049 Y184.218 E1.32997
G1 X241.035 Y184.104 E1.33507
G3 X240.905 Y181.28 I8.995 J-1.828 E1.46158
G1 X240.168 Y181.28 E1.49444
G1 X240.168 Y182.026 E1.52769
G1 X239.814 Y181.65 E1.55071
G2 X239.431 Y181.349 I-1.644 J1.7 E1.57248
G1 X239.431 Y178.343 E1.70648
G1 X238.694 Y178.343 E1.73934
G1 X238.694 Y180.948 E1.85546
G1 X237.957 Y180.712 E1.88996
G1 X237.957 Y178.343 E1.99557
G1 X237.22 Y178.343 E2.02842
G1 X237.22 Y180.807 E2.13825
G1 E1.43825
;WIPE_START
G1 X237.22 Y179.807 E1.13825
;WIPE_END
G92 E0
G1 Z.58 F36000
G1 X218.504 Y180.928 Z.58
G1 Z.28
G1 E1 F3600
;TYPE:Support
G1 X208.673 Y180.928 E1.43827
G1 X208.673 Y177.385 E1.59622
G1 X195.007 Y177.385 E2.20544
G1 X195.007 Y180.927 E2.36338
G1 X185.176 Y180.927 E2.80165
G1 X185.176 Y167.554 E3.39785
G1 X218.504 Y167.554 E4.88361
G1 X218.504 Y180.865 E5.47704
G1 X209.051 Y180.55 F36000
G1 F3600
G1 X209.051 Y177.007 E5.63499
G1 X194.629 Y177.007 E6.2779
G1 X194.629 Y180.55 E6.43584
G1 X185.554 Y180.549 E6.84042
G1 X185.554 Y167.932 E7.40292
G1 X218.126 Y167.932 E8.85499
G1 X218.126 Y180.55 E9.41752
G1 X209.051 Y180.55 E9.8221
G1 X209.517 Y180.083 F36000
G1 F3600
G1 X209.517 Y176.54 E9.98005
G1 X194.163 Y176.54 E10.66457
G1 X194.163 Y180.083 E10.8225
G1 X186.021 Y180.083 E11.18548
G1 X186.021 Y168.398 E11.70638
G1 X217.659 Y168.398 E13.11685
G1 X217.659 Y180.083 E13.63779
G1 X209.517 Y180.083 E14.00077
G1 X209.984 Y179.617 F36000
G1 F3600
G1 X209.984 Y176.074 E14.15872
G1 X193.696 Y176.074 E14.88483
G1 X193.696 Y179.616 E15.04277
G1 X186.487 Y179.616 E15.36414
G1 X186.487 Y168.865 E15.84345
G1 X217.193 Y168.865 E17.21232
G1 X217.193 Y179.617 E17.69166
G1 X209.984 Y179.617 E18.01303
G1 X210.45 Y179.15 F36000
G1 F3600
G1 X210.45 Y175.607 E18.17099
G1 X193.23 Y175.607 E18.9387
G1 X193.23 Y179.15 E19.09663
G1 X186.954 Y179.15 E19.37641
G1 X186.954 Y169.331 E19.81412
G1 X216.726 Y169.331 E21.14139
